cssgg/components.svg

<svg
  width="24"
  height="24"
  viewBox="0 0 24 24"
  fill="none"
  xmlns="http://www.w3.org/2000/svg"
>
  <path
    fill-rule="evenodd"
    clip-rule="evenodd"
    d="M7.7572 6.3431L11.9998 2.10046L16.2425 6.3431L11.9998 10.5857L7.7572 6.3431ZM10.5856 6.3431L11.9998 4.92889L13.4141 6.3431L11.9998 7.75732L10.5856 6.3431Z"
    fill="currentColor"
  />
  <path
    fill-rule="evenodd"
    clip-rule="evenodd"
    d="M2.10046 11.9999L6.3431 7.75726L10.5857 11.9999L6.3431 16.2425L2.10046 11.9999ZM4.92889 11.9999L6.3431 10.5857L7.75732 11.9999L6.3431 13.4141L4.92889 11.9999Z"
    fill="currentColor"
  />
  <path
    fill-rule="evenodd"
    clip-rule="evenodd"
    d="M13.4142 11.9999L17.6568 16.2425L21.8995 11.9999L17.6568 7.75726L13.4142 11.9999ZM17.6568 10.5857L16.2426 11.9999L17.6568 13.4141L19.071 11.9999L17.6568 10.5857Z"
    fill="currentColor"
  />
  <path
    fill-rule="evenodd"
    clip-rule="evenodd"
    d="M7.7572 17.6569L11.9998 13.4142L16.2425 17.6569L11.9998 21.8995L7.7572 17.6569ZM10.5856 17.6569L11.9998 16.2427L13.4141 17.6569L11.9998 19.0711L10.5856 17.6569Z"
    fill="currentColor"
  />
</svg>

<svg viewBox="0 0 24 24" xmlns="http://www.w3.org/2000/svg"><g fill-rule="evenodd"><path d="M7.75 6.34l4.24-4.25 4.24 4.24 -4.25 4.24 -4.25-4.25Zm2.82 0l1.41-1.42 1.41 1.41 -1.42 1.41 -1.42-1.42Z"/><path d="M2.1 11.99l4.24-4.25 4.24 4.24 -4.25 4.24 -4.25-4.25Zm2.82 0l1.41-1.42 1.41 1.41 -1.42 1.41 -1.42-1.42Z"/><path d="M13.41 11.99l4.24 4.24 4.24-4.25 -4.25-4.25 -4.25 4.24Zm4.24-1.42l-1.42 1.41 1.41 1.41 1.41-1.42 -1.42-1.42Z"/><path d="M7.75 17.65l4.24-4.25 4.24 4.24 -4.25 4.24 -4.25-4.25Zm2.82 0l1.41-1.42 1.41 1.41 -1.42 1.41 -1.42-1.42Z"/></g></svg>
